examples/icons/logout.svg

<?xml version="1.0" encoding="UTF-8"?>
<!DOCTYPE svg PUBLIC "-//W3C//DTD SVG 1.1//EN" "http://www.w3.org/Graphics/SVG/1.1/DTD/svg11.dtd">
<svg xmlns="http://www.w3.org/2000/svg" version="1.1" width="192px" height="192px" style="shape-rendering:geometricPrecision; text-rendering:geometricPrecision; image-rendering:optimizeQuality; fill-rule:evenodd; clip-rule:evenodd" xmlns:xlink="http://www.w3.org/1999/xlink">
<g><path style="opacity:0.994" fill="#000000" d="M 25.5,23.5 C 48.8333,23.5 72.1667,23.5 95.5,23.5C 95.5,28.8333 95.5,34.1667 95.5,39.5C 74.1667,39.5 52.8333,39.5 31.5,39.5C 31.5,76.8333 31.5,114.167 31.5,151.5C 52.8333,151.5 74.1667,151.5 95.5,151.5C 95.5,156.833 95.5,162.167 95.5,167.5C 72.1643,167.667 48.831,167.5 25.5,167C 21,165.167 17.8333,162 16,157.5C 15.3333,116.167 15.3333,74.8333 16,33.5C 18.0223,28.98 21.189,25.6467 25.5,23.5 Z"/></g>
<g><path style="opacity:0.971" fill="#000000" d="M 134.5,55.5 C 148.761,68.0927 162.428,81.426 175.5,95.5C 162.681,108.819 149.681,121.986 136.5,135C 135.833,135.667 135.167,135.667 134.5,135C 130.833,131.333 127.167,127.667 123.5,124C 130.167,117.333 136.833,110.667 143.5,104C 116.835,103.5 90.1687,103.333 63.5,103.5C 63.5,98.1667 63.5,92.8333 63.5,87.5C 90.1687,87.6666 116.835,87.5 143.5,87C 136.833,80.3333 130.167,73.6667 123.5,67C 127.37,63.2977 131.037,59.4643 134.5,55.5 Z"/></g>
</svg>

<svg width="192" height="192" style="shape-rendering:geometricPrecision;text-rendering:geometricPrecision;image-rendering:optimizeQuality;fill-rule:evenodd;clip-rule:evenodd" xmlns="http://www.w3.org/2000/svg"><g style="fill:#fff"><path style="opacity:.994;fill:#fff" fill="#000" d="M25.5 23.5h70v16h-64v112h64v16c-23.336.167-46.669 0-70-.5-4.5-1.833-7.667-5-9.5-9.5a3844.058 3844.058 0 0 1 0-124c2.022-4.52 5.189-7.853 9.5-10Z"/></g><g style="fill:#fff"><path style="opacity:.971;fill:#fff" fill="#000" d="M134.5 55.5a578.829 578.829 0 0 1 41 40 2176.631 2176.631 0 0 1-39 39.5c-.667.667-1.333.667-2 0l-11-11 20-20c-26.665-.5-53.331-.667-80-.5v-16c26.669.167 53.335 0 80-.5l-20-20a177.724 177.724 0 0 0 11-11.5Z"/></g></svg>
